X:1
T:James Gibb editions
T:Psalm 106 (Becker) - Schütz
%%score [ ( 1 2 ) ( 3 4 ) ]
L:1/8
Q:1/4=98
M:3/4
K:F
V:1 treble nm="Soprano Alto"
V:2 treble 
V:3 bass nm="Tenor Bass"
V:4 bass 
V:1
"^Cornelius Becker\n(1561-1604)""^Psalm 106, SWV 204""^Heinrich Schütz\n(1585-1672)" F2 F2 F2 | %1
w: ~Dan- ket dem|
 B4 A2 | G4 G2 | F6 | A2 A2 A2 | B4 G2 | F2 E4 | D6 | D2 D2 G2 | E4 A2 | F4 F2 | F6 | F2 F2 B2 | %13
w: Herrn, er-|zeigt ihm|Ehr,|denn un- ser|Gott ist|freund- lich|sehr,|sein Gü- te|wäh- ret|e- wig-|lich,|es kann kein|
 G4 c2 | A4 A2 | A6 | A2 B2 c2 | d4 c2 | (B2 A2) G2 | ^F6 | d2 c2 _e2 | d4 c2 | (B2 G2) c2 | B12 |] %24
w: Mensch aus-|spre- chen|nicht|die Ta- ten|groß, die|Gott * ge-|tan,|nie- mand sein|Werk g'nug|prei\- * sen|kann.|
V:2
 D2 D2 D2 | G4 F2 | F4 E2 | F6 | F2 F2 F2 | G4 D2 | D2 ^C4 | D6 | B,2 B,2 D2 | C4 E2 | D4 D2 | D6 | %12
 D2 D2 F2 | _E4 G2 | F4 F2 | F6 | ^F2 G2 A2 | F4 F2 | D4 G2 | D6 | F2 F2 G2 | F4 F2 | (D2 G2) F2 | %23
 F12 |] %24
V:3
 B,2 B,2 B,2 | D4 C2 | D4 C2 | A,6 | C2 C2 D2 | D4 B,2 | A,2 A,4 | A,6 | G,2 G,2 B,2 | G,4 C2 | %10
 A,4 A,2 | A,6 | B,2 B,2 D2 | B,4 _E2 | C4 C2 | C6 | %16
"^2. Wohl stehn die Leut mit unserm Gott, die richtig halten sein Gebot\nund gehn einher auf rechtem Pfad. Ach, Herr, gedenk auch mein in Gnad,\nund mich der Treu genießen laß, die du dein'm Volk bewiesen hast.\n\n3. Mit deiner Hülf wollst uns beistahn, daß wir mit Freuden schauen an\ndie Wohlfahrt deiner treuen Knecht, die du erwählt zu dein'm Geschlecht,\ndaß deinem Volk es wohl mög gähn und wir teil an dein'm Erbe han.\n\n30. Gelobet sei Gott ewiglich, der seines Volks erbarmet sich,\nvon Ewigkeit zu Ewigkeit sei ihm Lob, Ehr und Dienst bereit,\ndaß alles Volk drob Freud empfah und sing Amen, Halleluja." D2 D2 F2 | %17
 D4 A,2 | (G,2 A,2) C2 | A,6 | B,2 A,2 B,2 | B,4 A,2 | (G,2 B,2) A,2 | B,12 |] %24
V:4
 B,,2 B,,2 B,,2 | G,,4 A,,2 | B,,4 C,2 | F,,6 | F,2 F,2 D,2 | G,4 G,2 | D,2 A,,4 | D,6 | %8
 G,,2 G,,2 G,,2 | C,4 A,,2 | D,4 D,2 | D,6 | B,,2 B,,2 B,,2 | _E,4 C,2 | F,4 F,2 | F,6 | %16
 D,2 G,2 F,2 | B,4 F,2 | (G,2 F,2) _E,2 | D,6 | B,,2 F,2 _E,2 | B,,4 F,2 | (G,2 _E,2) F,2 | %23
 B,,12 |] %24

